src/img/Like.svg

<svg width="144" height="137" viewBox="0 0 144 137" fill="none" xmlns="http://www.w3.org/2000/svg">
<circle cx="80" cy="64.5" r="64" fill="#FFF7EB"/>
<circle cx="72" cy="72.5" r="63" stroke="#FAAA1E" stroke-width="2"/>
<path d="M58 74L66 51C66 51 71 51 71 57V68H89C89.7635 67.9959 90.5121 68.2115 91.1565 68.6212C91.8008 69.0308 92.3136 69.6173 92.6338 70.3104C92.954 71.0036 93.068 71.7743 92.9622 72.5304C92.8563 73.2866 92.5352 73.9964 92.037 74.575C92.693 74.9596 93.2249 75.5244 93.5694 76.2024C93.914 76.8803 94.0567 77.6429 93.9807 78.3996C93.9046 79.1562 93.6131 79.8752 93.1405 80.471C92.668 81.0669 92.0344 81.5146 91.315 81.761C91.6701 82.2853 91.895 82.8867 91.9712 83.5153C92.0475 84.144 91.9727 84.7817 91.7533 85.3757C91.5338 85.9697 91.1759 86.5028 90.7093 86.9308C90.2426 87.3589 89.6807 87.6695 89.07 87.837C89.504 88.2499 89.8041 88.7835 89.9316 89.3688C90.0591 89.9541 90.008 90.5642 89.7851 91.1202C89.5622 91.6762 89.1776 92.1525 88.6811 92.4876C88.1846 92.8228 87.599 93.0012 87 93H71C66.4846 93.0971 62.0163 92.0659 58 90" stroke="#FAAA1E" stroke-width="2" stroke-miterlimit="10" stroke-linecap="round" stroke-linejoin="round"/>
<path d="M56 70H52C50.8954 70 50 70.8954 50 72V90C50 91.1046 50.8954 92 52 92H56C57.1046 92 58 91.1046 58 90V72C58 70.8954 57.1046 70 56 70Z" stroke="#FAAA1E" stroke-width="2" stroke-miterlimit="10" stroke-linecap="round" stroke-linejoin="round"/>
</svg>

<svg fill="none" xmlns="http://www.w3.org/2000/svg" viewBox="0 0 144 137"><circle cx="80" cy="64.5" r="64" fill="#FFF7EB"/><circle cx="72" cy="72.5" r="63" stroke="#FAAA1E" stroke-width="2"/><path d="M58 74l8-23s5 0 5 6v11h18a4 4 0 013 7 4 4 0 01-1 7 4 4 0 01-2 6 3 3 0 01-2 5H71c-5 0-9-1-13-3M56 70h-4l-2 2v18l2 2h4l2-2V72l-2-2z" stroke="#FAAA1E" stroke-width="2" stroke-miterlimit="10" stroke-linecap="round" stroke-linejoin="round"/></svg>
